src/assets/icons/weeks,simple,34.svg

<svg width="48" height="48" viewBox="0 0 48 48" fill="none" xmlns="http://www.w3.org/2000/svg">
<rect opacity="0.2" x="5" y="5" width="38" height="38" rx="4" fill="black"/>
<path d="M5 13C5 9.22876 5 7.34315 6.17157 6.17157C7.34315 5 9.22876 5 13 5H35C38.7712 5 40.6569 5 41.8284 6.17157C43 7.34315 43 9.22876 43 13V15H5V13Z" fill="black"/>
<path d="M15.8235 38.2386C19.744 38.2386 22.5479 36.0824 22.5394 33.0994C22.5479 30.9261 21.1673 29.375 18.6019 29.0511V28.9148C20.5536 28.5653 21.9002 27.1847 21.8917 25.2244C21.9002 22.4716 19.4883 20.3068 15.8746 20.3068C12.2951 20.3068 9.60192 22.4034 9.55078 25.4205H13.0877C13.1303 24.0909 14.3491 23.2301 15.8576 23.2301C17.3491 23.2301 18.3462 24.1335 18.3377 25.446C18.3462 26.8182 17.1786 27.7472 15.4996 27.7472H13.8718V30.4574H15.4996C17.4769 30.4574 18.7127 31.446 18.7042 32.8523C18.7127 34.2415 17.5195 35.196 15.832 35.196C14.2042 35.196 12.9854 34.3438 12.9173 33.0653H9.20135C9.26101 36.1165 11.9883 38.2386 15.8235 38.2386ZM24.9279 34.9318H33.3058V38H36.8342V34.9318H38.9989V31.9744H36.8342V20.5455H32.2148L24.9279 32.0256V34.9318ZM33.3739 31.9744H28.6438V31.8381L33.2376 24.5682H33.3739V31.9744Z" fill="black"/>
</svg>

<svg xmlns="http://www.w3.org/2000/svg" width="48" height="48" fill="none" viewBox="0 0 48 48">
  <rect width="38" height="38" x="5" y="5" fill="#000" opacity=".2" rx="4"/>
  <path fill="#000" d="M5 13c0-3.771 0-5.657 1.172-6.828C7.343 5 9.229 5 13 5h22c3.771 0 5.657 0 6.828 1.172C43 7.343 43 9.229 43 13v2H5v-2zM15.823 38.239c3.921 0 6.725-2.157 6.716-5.14.009-2.173-1.372-3.724-3.937-4.048v-.136c1.952-.35 3.298-1.73 3.29-3.69.008-2.753-2.404-4.918-6.017-4.918-3.58 0-6.273 2.096-6.324 5.114h3.537c.042-1.33 1.261-2.19 2.77-2.19 1.491 0 2.488.902 2.48 2.215.008 1.372-1.16 2.301-2.838 2.301h-1.628v2.71H15.5c1.977 0 3.213.989 3.204 2.395.009 1.39-1.184 2.344-2.872 2.344-1.628 0-2.847-.852-2.915-2.13H9.201c.06 3.05 2.787 5.173 6.622 5.173zm9.105-3.307h8.378V38h3.528v-3.068H39v-2.958h-2.165V20.546h-4.62l-7.286 11.48v2.906zm8.446-2.958h-4.73v-.136l4.594-7.27h.136v7.406z"/>
</svg>
